epam-assets/icon-sources/18/internal-logo/journey.svg

<svg width="18" height="18" viewBox="0 0 18 18" fill="none" xmlns="http://www.w3.org/2000/svg">
<g id="18/internal-logo/journey">
<path id="icon" d="M8.75 13C7.7835 13 7 13.7835 7 14.75C7 15.7165 7.7835 16.5 8.75 16.5C9.7165 16.5 10.5 15.7165 10.5 14.75C10.5 13.7835 9.7165 13 8.75 13ZM13.1685 5.5C12.9685 5.5 12.8038 5.6513 12.7827 5.84566L12.7804 5.88793V7.51173H12.0014C9.59444 7.51173 7.60128 9.42977 7.50348 11.8587L7.50029 11.9729L7.5 12.4988C7.88911 12.278 8.33906 12.1518 8.81847 12.1518C9.29876 12.1518 9.74948 12.2784 10.1391 12.5L10.1389 11.9729C10.1389 10.9538 10.947 10.1551 11.92 10.1126L12.0014 10.1109H12.7804V11.7735C12.7804 11.8763 12.8213 11.975 12.8941 12.0478C13.034 12.1876 13.2541 12.1984 13.4063 12.08L13.4429 12.0478L16.3863 9.105C16.5262 8.96516 16.537 8.74511 16.4186 8.59293L16.3863 8.55639L13.4429 5.61362C13.3701 5.54087 13.2714 5.5 13.1685 5.5ZM4.61537 5.57938L4.57856 5.61087L1.61445 8.48234C1.47359 8.61879 1.46275 8.83351 1.58194 8.982L1.61445 9.01766L4.57856 11.8891C4.65184 11.9601 4.75122 12 4.85486 12C5.05627 12 5.22209 11.8524 5.24331 11.6627L5.2456 11.6215V9.99916L6.33314 9.99901C6.66222 9.0528 7.24449 8.22284 8 7.58452C7.70721 7.51638 7.40257 7.47576 7.08921 7.46555L6.93182 7.46299H5.2456V5.87853C5.2456 5.77814 5.20443 5.68186 5.13116 5.61087C4.9903 5.47441 4.76865 5.46392 4.61537 5.57938ZM9.0518 1.55311L9.01246 1.57933L8.97595 1.6108L6.11351 4.40481C6.04083 4.47575 6 4.57197 6 4.6723C6 4.8673 6.15115 5.02784 6.34533 5.04838L6.38756 5.0506H7.97105L7.97127 6.58289C8.52404 6.64754 8.84988 6.72496 9.34227 7C9.64702 6.76114 10.1816 6.64754 10.5289 6.63186L10.5289 5.0506H12.1124C12.2152 5.0506 12.3138 5.01074 12.3865 4.9398C12.5262 4.80343 12.5369 4.58885 12.4187 4.44045L12.3865 4.40481L9.52405 1.6108C9.39598 1.48579 9.20058 1.46656 9.0518 1.55311Z" fill="#6C6F80"/>
</g>
</svg>

<svg xmlns="http://www.w3.org/2000/svg" width="18" height="18" fill="none" viewBox="0 0 18 18">
  <path fill="#6C6F80" d="M8.75 13a1.75 1.75 0 1 0 0 3.5 1.75 1.75 0 0 0 0-3.5Zm4.418-7.5c-.2 0-.364.151-.385.346l-.003.042v1.624h-.779c-2.407 0-4.4 1.918-4.498 4.347l-.003.114v.526c.39-.221.84-.347 1.318-.347.48 0 .931.126 1.321.348v-.527c0-1.02.808-1.818 1.781-1.86l.081-.002h.78v1.662a.388.388 0 0 0 .625.307l.037-.032 2.943-2.943c.14-.14.151-.36.033-.512l-.033-.037-2.943-2.942a.388.388 0 0 0-.274-.114Zm-8.553.08-.036.03-2.965 2.872a.37.37 0 0 0-.032.5l.032.036 2.965 2.871a.395.395 0 0 0 .276.111.386.386 0 0 0 .388-.337l.003-.042V10h1.087A5.555 5.555 0 0 1 8 7.585a4.69 4.69 0 0 0-.91-.12l-.158-.002H5.246V5.879c0-.1-.042-.197-.115-.268a.4.4 0 0 0-.516-.032Zm4.437-4.027-.04.026-.036.032-2.862 2.794A.374.374 0 0 0 6 4.672c0 .195.151.356.345.376l.043.003H7.97v1.532c.553.065.879.142 1.371.417.305-.239.84-.352 1.187-.368V5.05h1.583a.39.39 0 0 0 .274-.111.372.372 0 0 0 .033-.5l-.033-.035L9.524 1.61a.395.395 0 0 0-.472-.058Z"/>
</svg>
